src/images/bubble.svg

<svg width="400" height="301" viewBox="0 0 400 301" fill="none" xmlns="http://www.w3.org/2000/svg">
<g clip-path="url(#clip0)">
<path d="M207.867 40.4549C205.589 40.4022 203.306 40.3674 201.007 40.3674C199.441 40.3674 197.881 40.3823 196.324 40.4072C197.886 40.3823 199.446 40.3674 201.007 40.3674C203.294 40.3724 205.58 40.4022 207.867 40.4549Z" fill="white"/>
<path d="M111.883 55.568C104.775 58.1562 97.8606 61.2498 91.1249 64.6609C84.4042 68.0984 77.859 71.9078 71.7635 76.342C59.5779 85.119 48.6117 95.9368 41.5064 109.048C34.2807 122.031 31.9687 137.56 35.6562 151.761C39.2637 166.02 48.186 178.478 59.0973 188.363C70.0348 198.338 82.9505 206.066 96.4761 212.221C110.055 218.336 124.357 222.814 138.896 226.138L139.835 226.352L140.595 227.026L170.932 253.883L186.033 267.392L183.529 261.808L172.871 237.708L169.911 231.014L177.175 231.649C195.643 233.265 214.259 232.965 232.701 231.111C251.129 229.182 269.39 225.429 286.937 219.542C304.428 213.623 321.382 205.588 335.925 194.277C343.155 188.62 349.842 182.209 355.232 174.827C360.586 167.451 364.785 159.169 366.713 150.269C367.324 148.072 367.48 145.795 367.856 143.552C367.935 141.284 368.245 139.011 368.08 136.734C368.085 132.171 367.283 127.642 366.187 123.208C365.046 118.769 363.274 114.509 361.249 110.373C359.059 106.325 356.688 102.334 353.804 98.6968C348.211 91.2902 341.393 84.8118 333.988 79.1265C326.59 73.4115 318.557 68.5106 310.187 64.294C293.428 55.8679 275.433 49.916 257.039 46.0854C238.635 42.204 219.809 40.516 201.007 40.3668C185.859 40.5021 170.695 41.5635 155.753 44.0903C140.801 46.4996 126.062 50.2915 111.883 55.5679" fill="white"/>
<path d="M217.363 40.827C217.844 40.8519 218.323 40.8813 218.804 40.9096C218.325 40.8798 217.844 40.8554 217.363 40.827Z" fill="white"/>
<path d="M208.207 40.462C210.279 40.5118 212.35 40.5849 214.42 40.6744C212.36 40.5814 210.288 40.5128 208.207 40.462Z" fill="white"/>
<path d="M192.097 40.5019C192.299 40.4985 192.5 40.492 192.702 40.4871C192.5 40.492 192.299 40.497 192.097 40.5019Z" fill="white"/>
<path d="M369.343 122.326C368.01 117.68 366.032 113.266 363.804 109.02C361.414 104.868 358.842 100.812 355.774 97.1531C349.814 89.6938 342.684 83.2961 335.027 77.7407C327.355 72.1906 319.166 67.4161 310.685 63.2872C293.695 55.0366 275.526 49.5374 257.102 45.7752C244.477 43.187 231.662 41.6499 218.804 40.9094C218.323 40.8796 217.844 40.8533 217.363 40.8269C216.382 40.7762 215.401 40.718 214.42 40.6742C212.35 40.5847 210.279 40.511 208.207 40.4618C208.095 40.46 207.981 40.4568 207.867 40.4568C205.58 40.4061 203.294 40.3742 201.008 40.3693C219.809 40.5185 238.636 42.2065 257.039 46.0879C275.434 49.9184 293.428 55.8704 310.187 64.2965C318.557 68.513 326.59 73.4139 333.988 79.129C341.393 84.8142 348.212 91.2926 353.804 98.6993C356.689 102.337 359.059 106.327 361.249 110.375C363.274 114.511 365.046 118.771 366.187 123.211C367.284 127.645 368.087 132.174 368.08 136.736C368.245 139.014 367.934 141.286 367.856 143.555C367.48 145.797 367.324 148.075 366.714 150.272C364.785 159.172 360.586 167.454 355.233 174.829C349.842 182.211 343.155 188.623 335.925 194.28C321.383 205.591 304.429 213.625 286.938 219.544C269.391 225.431 251.129 229.185 232.701 231.113C214.259 232.968 195.644 233.268 177.175 231.652L169.911 231.016L172.871 237.711L183.529 261.81L186.033 267.395L170.932 253.886L140.595 227.028L139.835 226.354L138.896 226.14C124.358 222.817 110.056 218.339 96.4765 212.224C82.9508 206.068 70.0351 198.34 59.0977 188.365C48.1864 178.481 39.2641 166.022 35.6566 151.764C31.9691 137.563 34.2811 122.034 41.5068 109.05C48.6121 95.9393 59.5783 85.1215 71.7639 76.3444C77.8594 71.9103 84.4046 68.1008 91.1253 64.6634C97.8609 61.2522 104.775 58.1586 111.884 55.5704C126.062 50.294 140.802 46.5022 155.754 44.0929C170.695 41.5661 185.859 40.5045 201.008 40.3694C199.446 40.3677 197.886 40.3894 196.325 40.4093C195.117 40.4292 193.91 40.459 192.703 40.4883C192.501 40.4933 192.299 40.4982 192.097 40.5032C164.77 41.2858 137.498 45.8218 111.62 54.8427C97.3107 59.8963 83.4923 66.501 70.8337 75.0095C58.2704 83.5514 46.7607 94.2271 38.99 107.647C31.1014 120.918 28.0915 137.388 31.6346 152.719C32.4742 156.544 33.6778 160.294 35.2275 163.887C36.7218 167.505 38.5711 170.967 40.6356 174.279C44.7517 180.922 49.8225 186.904 55.4088 192.291C66.608 203.082 79.8204 211.47 93.6579 218.238C107.232 224.816 121.528 229.787 136.133 233.377L165.335 260.101L195.365 287.299L210.375 300.893L202.182 282.347L191.534 258.243L183.691 240.738C219.374 242.693 255.539 238.394 289.301 226.283C307.206 219.669 324.532 210.889 339.419 198.651C346.819 192.526 353.664 185.604 359.163 177.623C364.627 169.653 368.874 160.687 370.679 151.102C371.258 148.737 371.374 146.291 371.701 143.887C371.725 141.459 371.978 139.032 371.74 136.61C371.608 131.755 370.631 126.97 369.342 122.327" fill="#1A181B"/>
</g>
<defs>
<clipPath id="clip0">
<rect width="400" height="300.893" fill="white"/>
</clipPath>
</defs>
</svg>

<svg width="400" height="301" fill="none" xmlns="http://www.w3.org/2000/svg"><g clip-path="url(#clip0)"><path d="M207.867 40.455a328.947 328.947 0 010 0z" fill="#fff"/><path d="M111.883 55.568c-7.108 2.588-14.022 5.682-20.758 9.093-6.72 3.437-13.266 7.247-19.362 11.681-12.185 8.777-23.151 19.595-30.257 32.706-7.225 12.983-9.537 28.512-5.85 42.713 3.608 14.259 12.53 26.717 23.441 36.602 10.938 9.975 23.854 17.703 37.38 23.858 13.578 6.115 27.88 10.593 42.419 13.917l.939.214.76.674 30.337 26.857 15.101 13.509-2.504-5.584-10.658-24.1-2.96-6.694 7.264.635c18.468 1.616 37.084 1.316 55.526-.538 18.428-1.929 36.689-5.682 54.236-11.569 17.491-5.919 34.445-13.954 48.988-25.265 7.23-5.657 13.917-12.068 19.307-19.45 5.354-7.376 9.553-15.658 11.481-24.558.611-2.197.767-4.474 1.143-6.717.079-2.268.389-4.541.224-6.818.005-4.563-.797-9.092-1.893-13.526-1.141-4.439-2.913-8.7-4.938-12.835-2.19-4.048-4.561-8.039-7.445-11.676-5.593-7.407-12.411-13.885-19.816-19.57-7.398-5.715-15.431-10.616-23.801-14.833-16.759-8.426-34.754-14.378-53.148-18.209-18.404-3.881-37.23-5.569-56.032-5.718-15.148.135-30.312 1.197-45.254 3.723-14.952 2.41-29.691 6.201-43.87 11.478" fill="#fff"/><path d="M217.363 40.827c.481.025.96.054 1.441.083-.479-.03-.96-.055-1.441-.083zM208.207 40.462zM192.097 40.502c.202-.004.403-.01.605-.015l-.605.015z" fill="#fff"/><path d="M369.343 122.326c-1.333-4.647-3.311-9.06-5.539-13.306-2.39-4.152-4.963-8.208-8.03-11.867-5.96-7.46-13.09-13.857-20.747-19.412-7.672-5.55-15.861-10.325-24.342-14.454-16.991-8.25-35.159-13.75-53.583-17.512-12.625-2.588-25.44-4.125-38.298-4.866-.481-.03-.96-.056-1.441-.082-.981-.05-1.962-.11-2.943-.153a319.31 319.31 0 00-6.213-.212c-.112-.002-.226-.005-.34-.005-2.287-.051-4.573-.083-6.859-.088 18.801.15 37.628 1.837 56.031 5.719 18.395 3.83 36.389 9.782 53.148 18.208 8.37 4.217 16.403 9.118 23.801 14.833 7.405 5.685 14.224 12.163 19.816 19.57 2.885 3.638 5.255 7.628 7.445 11.676 2.025 4.136 3.797 8.396 4.938 12.836 1.097 4.434 1.9 8.963 1.893 13.525.165 2.278-.146 4.55-.224 6.819-.376 2.242-.532 4.52-1.142 6.717-1.929 8.9-6.128 17.182-11.481 24.557-5.391 7.382-12.078 13.794-19.308 19.451-14.542 11.311-31.496 19.345-48.987 25.264-17.547 5.887-35.809 9.64-54.237 11.569-18.442 1.854-37.057 2.155-55.526.539l-7.264-.636 2.96 6.694 10.658 24.1 2.504 5.585-15.101-13.509-30.337-26.858-.76-.674-.939-.214c-14.538-3.323-28.84-7.801-42.42-13.916-13.525-6.156-26.44-13.884-37.378-23.859-10.912-9.884-19.834-22.343-23.441-36.602-3.688-14.2-1.376-29.73 5.85-42.713 7.105-13.11 18.071-23.929 30.257-32.706 6.095-4.434 12.64-8.243 19.361-11.68 6.736-3.412 13.65-6.506 20.759-9.094 14.178-5.276 28.918-9.068 43.87-11.477 14.941-2.527 30.105-3.589 45.254-3.724-1.562-.001-3.122.02-4.683.04-1.208.02-2.415.05-3.622.08l-.606.014c-27.327.783-54.599 5.319-80.477 14.34C97.31 59.896 83.492 66.5 70.834 75.009 58.27 83.551 46.76 94.227 38.99 107.647c-7.889 13.271-10.899 29.741-7.355 45.071a61.563 61.563 0 003.592 11.169c1.495 3.618 3.344 7.08 5.409 10.391 4.116 6.644 9.186 12.626 14.773 18.013 11.199 10.791 24.411 19.178 38.249 25.946 13.574 6.579 27.87 11.55 42.475 15.14l29.202 26.724 30.03 27.198 15.01 13.594-8.193-18.546-10.648-24.104-7.843-17.505c35.683 1.955 71.848-2.344 105.61-14.455 17.905-6.614 35.231-15.394 50.118-27.632 7.4-6.125 14.245-13.048 19.744-21.028 5.464-7.97 9.711-16.936 11.516-26.521.579-2.365.695-4.811 1.022-7.215.024-2.429.277-4.855.039-7.277-.132-4.855-1.109-9.64-2.398-14.283" fill="#1A181B"/><path d="M6.471 41.595L0 52.185 54.947 73.01 6.471 41.595zM69.403 0L57.29 2.699l14.046 56.03L69.403 0zM17.793.483L4.296 10.935 64.763 64.57 17.793.483zM365.857 89.604L400 76.664l-4.02-6.581-30.123 19.521zM356.875 44.234l-1.202 36.495 8.728-34.817-7.526-1.678zM397.331 51.03l-8.386-6.496-29.187 39.827 37.573-33.33z" fill="#1B171B"/></g><defs><clipPath id="clip0"><path fill="#fff" d="M0 0h400v300.893H0z"/></clipPath></defs></svg>
